!!!!SEGMENT: pl-gd--ee-1638--002-004_marenzio-luca--motettorum-pro-festis-totius-anni-in-festo-ss-innocentium-innocentes-occisi-sunt.krn
!!!cenid: 15xx:1007
!!!COM: Marenzio, Luca
!!!COM-rismID: pe30003955
!!!CDT: ~1553-1599/08/22
!!!CNT: Italian
!!!GTL: Motettorum pro festis totius anni
!!!OTL: In festo SS. Innocentium/Innocentes occisi sunt
!!!OMV: 004
!!!PDT: 1588
!!!AGN:
!!!SMS-siglum: PL-GD
!!!SMS-shelfmark: Ee 1638
!!!SMS-shelfwork: 002-004 G
!!!SMS-variant:
!!!SMS-altvar:
!!!NIFC-rismSourceID: 1001202747
!!!NIFC-rismChildID: 990039238
!!!NIFC-islandoraID: pl-gd:57883
!!!URL-pdf-islandora: https://repozytorium.nifc.pl/islandora/object/pl-gd%3A57883/datastream/PDF/view
!!!URL-scan: https://polish.musicsources.pl/pl/lokalizacje/galeria/klocki-introligatorskie/655 @EN{Scan on Polish Music Sources Website} @PL{Skany w portalu Dziedzictwo Muzyki Polskiej w otwartym dostępie}
!!!ONB-nifc: UWAGA: Cantus: s. 618 (lewa), Altus: s. 466 (lewa), Tenor: s. 314 (lewa), Bassus: s. 162 (lewa)
!!!AIN: 1 alto 1 bass 1 soprn 1 tenor
!!!key:
**kern	**text	**kern	**text	**kern	**text	**kern	**text
*part4	*part4	*part3	*part3	*part2	*part2	*part1	*part1
*staff4	*staff4	*staff3	*staff3	*staff2	*staff2	*staff1	*staff1
*I"BASSO	*	*I"TENORE	*	*I"ALTO	*	*I"CANTO	*
*I'B.	*	*I'T.	*	*I'A.	*	*I'C.	*
*Ibass	*	*Itenor	*	*Ialto	*	*Isoprn	*
*ICvox	*	*ICvox	*	*ICvox	*	*ICvox	*
*IG	*	*	*	*	*	*	*
*clefF3	*	*clefC3	*	*clefC2	*	*clefG2	*
*k[]	*	*k[]	*	*k[]	*	*k[]	*
*d:	*	*d:	*	*d:	*	*d:	*
*M2/1	*	*M2/1	*	*M2/1	*	*M2/1	*
*met(C|)	*	*met(C|)	*	*met(C|)	*	*met(C|)	*
=1-	=1-	=1-	=1-	=1-	=1-	=1-	=1-
*xywh-#162:1050,580,3490,794	*	*	*	*	*	*	*
*	*	*xywh-#314:1084,376,3450,926	*	*	*	*	*
*	*	*	*	*xywh-#466:1089,534,3320,831	*	*	*
*	*	*	*	*	*	*xywh-#618:1030,507,3465,830	*
!	!	!	!	!	!	!LO:TX:b:i:t=INnocentes	!
!LO:TX:a:i:t=In festo SS. Innocentium	!	!LO:TX:a:i:t=In festo SS. Innocentium	!	!LO:TX:a:i:t=In festo SS. Innocentium	!	!LO:TX:a:i:t=In festo SS. Innocentium	!
0r	.	1A	IN-	0r	.	0r	.
.	.	1c	-no-	.	.	.	.
=2-	=2-	=2-	=2-	=2-	=2-	=2-	=2-
1D	IN-	1d	-cen-	0r	.	0r	.
1F	-no-	2A/	-tes	.	.	.	.
.	.	2A/	pro	.	.	.	.
=3-	=3-	=3-	=3-	=3-	=3-	=3-	=3-
1G	-cen-	4B/	Chri-	1d	IN-	0r	.
.	.	4A/	.	.	.	.	.
.	.	4B/	.	.	.	.	.
.	.	4c/	.	.	.	.	.
2D/	-tes	1d	.	1f	-no-	.	.
2D/	pro	.	.	.	.	.	.
=4-	=4-	=4-	=4-	=4-	=4-	=4-	=4-
4E/	Chri-	2G/	-ſto	1g	-cen-	0r	.
4D/	.	.	.	.	.	.	.
4E/	.	2.c/	in-	.	.	.	.
4F/	.	.	.	.	.	.	.
1G	.	.	.	2d/	-tes	.	.
.	.	8B/	.	.	.	.	.
.	.	8A/	.	.	.	.	.
.	.	2B/	.	2d/	pro	.	.
=5-	=5-	=5-	=5-	=5-	=5-	=5-	=5-
2C/	-ſto	2.c/	-fan-	4e/	Chri-	0r	.
.	.	.	.	4d/	.	.	.
2.c\	in-	.	.	4e/	.	.	.
!	!	!LO:SIC:v:t=custos e	!	!	!	!	!
.	.	4d\	.	4f\	.	.	.
*	*	*xywh-#314:1099,1071,3413,776	*	*	*	*	*
!	!	!LO:LB:g=original	!	!	!	!	!
.	.	4e\	.	1g	.	.	.
8B\	.	4d\	.	.	.	.	.
!LO:SIC:v:t=custos B	!	!	!	!	!	!	!
8A\	.	.	.	.	.	.	.
*xywh-#162:1089,1275,3406,634	*	*	*	*	*	*	*
!LO:LB:g=original	!	!	!	!	!	!	!
2B\	.	2.g\	.	.	.	.	.
=6-	=6-	=6-	=6-	=6-	=6-	=6-	=6-
2.c\	-fan-	.	.	2e/	-ſto	0r	.
.	.	4f\	.	.	.	.	.
.	.	4e\	.	2g\	in-	.	.
4B\	.	4d\	.	.	.	.	.
2.A\	.	1c	.	4f\	-fan-	.	.
.	.	.	.	4e/	.	.	.
.	.	.	.	2.e/	.	.	.
4G\	.	.	.	.	.	.	.
=7-	=7-	=7-	=7-	=7-	=7-	=7-	=7-
1F	.	2A/	-tes	.	.	2re	.
.	.	.	.	8d/	.	.	.
.	.	.	.	8c/	.	.	.
!	!	!	!	!LO:SIC:v:t=custos e	!	!	!
.	.	2A/	oc-	2d/	.	2a/	Oc-
*	*	*	*	*xywh-#466:988,1245,3396,660	*	*	*
!	!	!	!	!LO:LB:g=original	!	!	!
1E	-tes	2c/	-ci-	2.e/	-tes	2a/	-ci-
.	.	2B/	-ſi	.	.	2g#X/	-ſi
.	.	.	.	4d/	.	.	.
=8-	=8-	=8-	=8-	=8-	=8-	=8-	=8-
2rGG	.	2A/	ſunt	1c	.	1a	ſunt
2A\	oc-	2a\	oc-	.	.	.	.
2c\	-ci-	2a\	-ci-	2rg	.	2re	.
*	*	*	*	*	*	*	*ij
2B\	-ſi	2g#X\	-ſi	2d/	oc-	2dd\	Oc-
=9-	=9-	=9-	=9-	=9-	=9-	=9-	=9-
1A	ſunt	1a	ſunt	2f\	-ci-	2dd\	-ci-
.	.	.	.	2e/	-ſi	2cc#X\	-ſi
2rGG	.	2rF	.	4d/	ſunt	1dd	ſunt
*	*	*	*	*	*	*	*Xij
.	.	.	.	4e/	.	.	.
*	*ij	*	*	*	*	*	*
2d\	oc-	2d\	oc-	4f\	.	.	.
.	.	.	.	4g\	.	.	.
=10-	=10-	=10-	=10-	=10-	=10-	=10-	=10-
2d\	-ci-	2f\	-ci-	2.a\	.	1r	.
2c#X\	-ſi	2e\	-ſi	.	.	.	.
.	.	.	.	4g\	.	.	.
2.d\	ſunt	4d\	ſunt	1f	.	1a	In-
*	*Xij	*	*	*	*	*	*
.	.	4e\	.	.	.	.	.
.	.	4f\	.	.	.	.	.
!	!	!LO:SIC:v:t=custos a	!	!	!	!	!
8cny\	.	4gny\	.	.	.	.	.
*	*	*xywh-#314:1137,1601,3360,799	*	*	*	*	*
!	!	!LO:LB:g=original	!	!	!	!	!
8B\	.	.	.	.	.	.	.
=11-	=11-	=11-	=11-	=11-	=11-	=11-	=11-
*lig	*	*	*	*	*	*	*
1A	.	2a\	.	1r	.	1ccny	-no-
.	.	2A/	pro	.	.	.	.
!LO:SIC:v:t=custos G	!	!	!	!	!	!LO:SIC:v:t=custos a	!
1G	.	4B/	Chri-	1d	In-	1dd	-cen-
*	*	*	*	*	*	*xywh-#618:1068,1199,3490,660	*
*xywh-#162:1096,1825,3429,626	*	*	*	*	*	*	*
!LO:LB:g=original	!	!	!	!	!	!LO:LB:g=original	!
.	.	4A/	.	.	.	.	.
.	.	4B/	.	.	.	.	.
.	.	4c/	.	.	.	.	.
*Xlig	*	*	*	*	*	*	*
=12-	=12-	=12-	=12-	=12-	=12-	=12-	=12-
1r	.	1d	.	1f	-no-	2a/	-tes
.	.	.	.	.	.	2a/	pro
1G	In-	1d	-ſto	1g	-cen-	4b/	Chri-
.	.	.	.	.	.	4a/	.
.	.	.	.	.	.	4b/	.
.	.	.	.	.	.	4cc\	.
=13-	=13-	=13-	=13-	=13-	=13-	=13-	=13-
1B	-no-	1r	.	2d/	-tes	1dd	.
.	.	.	.	2d/	pro	.	.
1c	-cen-	2rF	.	4e/	Chri-	2gny/	-ſto
.	.	.	.	4d/	.	.	.
.	.	2c/	oc-	4e/	.	2.cc\	in-
.	.	.	.	4f\	.	.	.
=14-	=14-	=14-	=14-	=14-	=14-	=14-	=14-
!	!	!	!	!LO:SIC:v:t=custos e	!	!	!
2G\	-tes	2e\	-ci-	1g	.	.	.
*	*	*	*	*xywh-#466:1000,1778,3421,698	*	*	*
!	!	!	!	!LO:LB:g=original	!	!	!
.	.	.	.	.	.	8b/	.
.	.	.	.	.	.	8a/	.
2G\	pro	2d\	-ſi	.	.	2b/	.
4A\	Chri-	0.c	ſunt	2e\	-ſto	1cc	-fan-
4G\	.	.	.	.	.	.	.
4A\	.	.	.	2.f\	in-	.	.
4B\	.	.	.	.	.	.	.
=15-	=15-	=15-	=15-	=15-	=15-	=15-	=15-
1c	.	.	.	.	.	1g	-tes
.	.	.	.	8e/	.	.	.
.	.	.	.	8d/	.	.	.
.	.	.	.	2e/	.	.	.
2F/	-ſto	.	.	2f\	-fan-	2re	.
2.A\	in-	.	.	4e/	.	2a/	oc-
.	.	.	.	4d/	.	.	.
=16-	=16-	=16-	=16-	=16-	=16-	=16-	=16-
.	.	1r	.	1e	-tes	2cc\	-ci-
8G#X\	.	.	.	.	.	.	.
8F#X\	.	.	.	.	.	.	.
2G#X\	.	.	.	.	.	2b/	-ſi
1A	-fan-	2rF	.	2rg	.	4a/	ſunt
.	.	.	.	.	.	4b/	.
*	*	*	*ij	*	*	*	*
.	.	2A/	oc-	2a\	oc-	4cc\	.
.	.	.	.	.	.	4dd\	.
=17-	=17-	=17-	=17-	=17-	=17-	=17-	=17-
1E	-tes	2c/	-ci-	2a\	-ci-	1ee	.
.	.	2B/	-ſi	2g#X\	-ſi	.	.
2rGG	.	1A	ſunt	1a	ſunt	2re	.
!	!	!	!	!	!	!LO:SIC:v:t=custos a	!
2A\	oc-	.	.	.	.	2a/	oc-
*	*	*	*	*	*	*xywh-#618:1112,1752,3402,672	*
!	!	!	!	!	!	!LO:LB:g=original	!
=18-	=18-	=18-	=18-	=18-	=18-	=18-	=18-
!LO:SIC:v:t=custos B	!	!	!	!	!	!	!
2c\	-ci-	2rF	.	2rg	.	2a/	-ci-
*xywh-#162:1043,2375,3490,611	*	*	*	*	*	*	*
!LO:LB:g=original	!	!	!	!	!	!	!
*	*	*	*	*	*ij	*	*
2B\	-ſi	2d\	oc-	2d/	oc-	2g#X/	-ſi
1A	ſunt	2d\	-ci-	2f\	-ci-	0a	ſunt
.	.	2c#X/	-ſi	2e/	-ſi	.	.
=19-	=19-	=19-	=19-	=19-	=19-	=19-	=19-
!	!	!LO:SIC:v:t=custos f	!	!	!	!	!
1.D	ab	1d	ſunt	2d/	ſunt	.	.
*	*	*xywh-#314:1002,2191,3450,739	*	*	*	*	*
!	!	!LO:LB:g=original	!	!	!	!	!
*	*	*	*Xij	*	*Xij	*	*
.	.	.	.	1f	ab	.	.
.	.	1.f	ab	.	.	1.dd	ab
!	!	!	!	!LO:SIC:v:t=custos a	!	!	!
2E/	in-	.	.	2gny\	i-	.	.
*	*	*	*	*xywh-#466:975,2299,3409,666	*	*	*
!	!	!	!	!LO:LB:g=original	!	!	!
=20-	=20-	=20-	=20-	=20-	=20-	=20-	=20-
*	*	*	*	*lig	*	*	*
1Fny	-i-	.	.	1a	-ni-	.	.
.	.	2e\	in-	.	.	2cc\	in-
*	*	*	*	*col	*	*	*
1Gny	-quo	1d	-i-	2.g\	.	1b	-i-
*	*	*	*	*Xlig	*	*	*
.	.	.	.	4f\	.	.	.
*	*	*	*	*Xcol	*	*	*
=21-	=21-	=21-	=21-	=21-	=21-	=21-	=21-
2.A\	re-	2cny/	-quo	2e/	.	1cc	-quo
.	.	2.f\	re-	2a\	-quo	.	.
4B\	.	.	.	.	.	.	.
1c	.	.	.	1g	re-	1cc	re-
.	.	8e\	.	.	.	.	.
.	.	8d\	.	.	.	.	.
.	.	2e\	.	.	.	.	.
=22-	=22-	=22-	=22-	=22-	=22-	=22-	=22-
00F	-ge	2.f\	-ge	1a	-ge	1cc	-ge
.	.	8e\	.	.	.	.	.
.	.	8d\	.	.	.	.	.
.	.	0c	.	2rg	.	2re	.
.	.	.	.	2f\	la-	2a/	la-
=23-	=23-	=23-	=23-	=23-	=23-	=23-	=23-
.	.	.	.	4f\	-ctan-	4a/	-ctan-
.	.	.	.	4e\	.	4gny/	.
.	.	.	.	4f\	.	4a/	.
.	.	.	.	4g\	.	4b/	.
.	.	2rF	.	4a\	.	4cc\	.
.	.	.	.	4g\	.	4b/	.
.	.	2A/	la-	4a\	.	4cc\	.
.	.	.	.	4b\	.	4dd\	.
=24-	=24-	=24-	=24-	=24-	=24-	=24-	=24-
0r	.	4A/	-ctan-	2.cc\	.	2.ee\	.
.	.	4G/	.	.	.	.	.
.	.	4A/	.	.	.	.	.
.	.	4B/	.	8b\	.	4dd\	.
.	.	.	.	8a\	.	.	.
.	.	4c/	.	2g\	.	1cc	.
.	.	4B/	.	.	.	.	.
.	.	4c/	.	2.a\	.	.	.
.	.	4d\	.	.	.	.	.
=25-	=25-	=25-	=25-	=25-	=25-	=25-	=25-
2rGG	.	1e	.	.	.	1b	-tes
.	.	.	.	8g\	.	.	.
!	!	!	!	!LO:SIC:v:t=custos g#	!	!	!
.	.	.	.	8f#X\	.	.	.
*	*	*	*	*xywh-#466:962,2845,3409,698	*	*	*
!	!	!	!	!LO:LB:g=original	!	!	!
2E/	la-	.	.	2g#X\	.	.	.
!	!	!LO:SIC:v:t=custos e	!	!	!	!	!
4F/	-ctan-	0c	-tes	2.a\	-tes	2re	.
*	*	*xywh-#314:1032,2751,3428,754	*	*	*	*	*
!	!	!LO:LB:g=original	!	!	!	!	!
4E/	.	.	.	.	.	.	.
!	!	!	!	!	!	!LO:SIC:v:t=custos cc	!
4F/	.	.	.	.	.	2a/	lac-
*	*	*	*	*	*	*xywh-#618:1137,2356,3377,591	*
!	!	!	!	!	!	!LO:LB:g=original	!
4G\	.	.	.	8gny\	.	.	.
.	.	.	.	8fny\	.	.	.
=26-	=26-	=26-	=26-	=26-	=26-	=26-	=26-
4A\	.	.	.	1e	.	4cc\	-tan-
4G\	.	.	.	.	.	4b\	.
4A\	.	.	.	.	.	4cc\	.
4B\	.	.	.	.	.	4dd\	.
!LO:SIC:v:t=custos G	!	!	!	!	!	!	!
1c	.	2rF	.	1r	.	2.ee\	.
*xywh-#162:1035,2795,3513,786	*	*	*	*	*	*	*
!LO:LB:g=original	!	!	!	!	!	!	!
.	.	2.e\	in-	.	.	.	.
.	.	.	.	.	.	8dd\	.
.	.	.	.	.	.	8cc\	.
=27-	=27-	=27-	=27-	=27-	=27-	=27-	=27-
*lig	*	*	*	*	*	*	*
1G	-tes	.	.	2.g\	in-	1b	.
.	.	4B/	-ter-	.	.	.	.
.	.	1d	-fe-	.	.	.	.
.	.	.	.	4d/	-ter-	.	.
1A	.	.	.	2f\	-fe-	1a	-tes
.	.	2c#X/	-cti	2e/	-cti	.	.
*Xlig	*	*	*	*	*	*	*
=28-	=28-	=28-	=28-	=28-	=28-	=28-	=28-
0r	.	1d	ſunt	1f	ſunt	2re	.
.	.	.	.	.	.	2.dd\	in-
*	*	*	*ij	*	*ij	*	*
.	.	2.f\	in-	2.a\	in-	.	.
.	.	.	.	.	.	4a/	-ter-
.	.	.	.	.	.	1cc\	-fe-
.	.	4cny/	-ter-	4e/	-ter-	.	.
=29-	=29-	=29-	=29-	=29-	=29-	=29-	=29-
2rGG	.	2e\	-fe-	2.g\	-fe-	.	.
2G\	ip-	2d\	-cti	.	.	2b/	-cti
.	.	.	.	4f\	-cti	.	.
2A\	-ſum	1c	ſunt	1e	ſunt	1cc	ſunt
*	*	*	*Xij	*	*Xij	*	*
2c\	ſe-	.	.	.	.	.	.
=30-	=30-	=30-	=30-	=30-	=30-	=30-	=30-
4c\	-quun-	1e	ip-	2g\	ip-	2re	.
4B\	.	.	.	.	.	.	.
4A\	.	.	.	1a	-ſum	2cc\	ip-
4G\	.	.	.	.	.	.	.
4F/	.	2f\	-ſum	.	.	2cc\	-ſum
4E/	.	.	.	.	.	.	.
1D/	.	2f\	ſe-	2a\	ſe-	2dd\	ſe-
=31-	=31-	=31-	=31-	=31-	=31-	=31-	=31-
!	!	!	!	!LO:SIC:v:t=custos a	!	!	!
.	.	2d\	-quu(n)-	2a\	-quun-	2ff\	-quu(n)-
*	*	*	*	*xywh-#466:898,3384,3447,736	*	*	*
!	!	!	!	!LO:LB:g=original	!	!	!
2C#X/	-tur	2e\	-tur	2a\	-tur	2ee\	-tur
1D	a-	1f	a-	1a	a-	1dd	a-
=32-	=32-	=32-	=32-	=32-	=32-	=32-	=32-
0A	-gnum	0e	-gnum	1a	-gnum	1cc	-gnu(m)
.	.	.	.	2.cc\	ſi-	2.ee\	ſi-
!	!	!	!	!	!	!LO:SIC:v:t=custos cc	!
.	.	.	.	4b\	-ne	4dd\	-ne
*	*	*	*	*	*	*xywh-#618:1150,2859,3358,628	*
!	!	!	!	!	!	!LO:LB:g=original	!
=33-	=33-	=33-	=33-	=33-	=33-	=33-	=33-
1r	.	1r	.	2a\	ma-	2cc\	ma-
.	.	.	.	2g#X\	-cu-	2b/	-cu-
2.A\	ſi-	2.c/	ſi-	1a	-la	1a	-la
4G\	-ne	4B/	-ne	.	.	.	.
=34-	=34-	=34-	=34-	=34-	=34-	=34-	=34-
2F/	ma-	2A/	ma-	1r	.	1r	.
2E/	-cu-	2G#X/	-cu-	.	.	.	.
!	!	!LO:SIC:v:t=custos a	!	!	!	!	!
1D	-la	1A	-la	2.a\	ſi-	2.ff\	ſi-
*	*	*xywh-#314:935,3304,3472,716	*	*	*	*	*
!	!	!LO:LB:g=original	!	!	!	!	!
.	.	.	.	4gny\	-ne	4ee\	-ne
=35-	=35-	=35-	=35-	=35-	=35-	=35-	=35-
2rGG	.	2rF	.	2f\	ma-	2dd\	ma-
!LO:SIC:v:t=custos B	!	!	!	!	!	!	!
2A\	(et)	2a\	(et)	2e/	-cu-	2cc#X\	-cu-
*xywh-#162:1043,3406,3475,702	*	*	*	*	*	*	*
!LO:LB:g=original	!	!	!	!	!	!	!
2B\	di-	2g\	di-	1d	-la	1dd	-la
2d\	-cunt	2f\	-cunt	.	.	.	.
=36-	=36-	=36-	=36-	=36-	=36-	=36-	=36-
2c#X\	ſem-	2e\	ſem-	2rg	.	2re	.
2d\	-per	2d\	-per	2d/	(et)	2dd\	(et)
1r	.	1r	.	2e/	di-	2ccny\	di-
.	.	.	.	2g\	-cunt	2b/	-cunt
=37-	=37-	=37-	=37-	=37-	=37-	=37-	=37-
2rGG	.	2rF	.	2f#X\	ſem-	2a/	ſem-
!	!	!	!	!LO:SIC:v:t=custos a	!	!	!
*	*ij	*	*ij	*	*	*	*
2G\	et	2g\	(et)	2g\	-per	2g/	-per
*	*	*	*	*xywh-#466:898,3974,3453,672	*	*	*
!	!	!	!	!LO:LB:g=original	!	!	!
2A\	di-	2f\	di-	1r	.	1r	.
2cny\	-cunt	2e\	-cunt	.	.	.	.
=38-	=38-	=38-	=38-	=38-	=38-	=38-	=38-
2B\	ſem-	2d\	ſem-	1r	.	1r	.
2c\	-per	2c/	-per	.	.	.	.
*	*Xij	*	*Xij	*	*	*	*
1.F	glo-	1.f	glo-	1.a	glo-	1.cc	glo-
=39-	=39-	=39-	=39-	=39-	=39-	=39-	=39-
.	.	.	.	.	.	.	.
2F/	-ri-	2f\	-ri-	2a\	-ri-	2cc\	-ri-
1F	-a	0f	-a	1a	-a	1cc	-a
=40-	=40-	=40-	=40-	=40-	=40-	=40-	=40-
2.B-X\	ti-	.	.	0b-X	ti-	0dd	ti-
4A\	.	.	.	.	.	.	.
2G\	.	2.g\	ti-	.	.	.	.
2G\	-bi	.	.	.	.	.	.
.	.	4f\	.	.	.	.	.
=41-	=41-	=41-	=41-	=41-	=41-	=41-	=41-
2.A\	Do-	2e\	.	1a	-bi	2cc\	-bi
.	.	2c/	-bi	.	.	2.ee\	do-
4G\	.	.	.	.	.	.	.
2F/	.	1.f	do-	2a\	do-	.	.
!	!	!	!	!	!	!LO:SIC:v:t=custos dd	!
.	.	.	.	.	.	4dd\	.
*	*	*	*	*	*	*xywh-#618:1074,3393,3414,647	*
!	!	!	!	!	!	!LO:LB:g=original	!
2D/	-mi-	.	.	2a\	-mi-	1dd\	.
=42-	=42-	=42-	=42-	=42-	=42-	=42-	=42-
!LO:SIC:v:t=custos A	!	!	!	!	!	!	!
1A	-ne	.	.	1a	-ne	.	.
*xywh-#162:1096,3979,3368,702	*	*	*	*	*	*	*
!LO:LB:g=original	!	!	!	!	!	!	!
.	.	4e\	.	.	.	4cc#X\	.
.	.	4d\	.	.	.	4b/	.
!	!	!LO:SIC:v:t=custos e	!	!	!	!	!
2rGG	.	2e\	.	2rg	.	2cc#X\	.
*	*	*xywh-#314:942,3834,3457,754	*	*	*	*	*
!	!	!LO:LB:g=original	!	!	!	!	!
2A\	(et)	2e\	-mi-	2a\	(et)	2cc#\	-mi-
=43-	=43-	=43-	=43-	=43-	=43-	=43-	=43-
2Bny\	di-	1d	-ne	2g\	di-	1dd	-ne
2d\	-cunt	.	.	2fny\	-cunt	.	.
2c#X\	ſem-	2rF	.	2e/	ſem-	2re	.
2d\	-per	2d\	(et)	2d/	-per	2dd\	(et)
=44-	=44-	=44-	=44-	=44-	=44-	=44-	=44-
1r	.	2e\	di-	1r	.	2ccny\	di-
.	.	2g\	-cunt	.	.	2b/	-cunt
2rGG	.	2f#X\	ſem-	2rg	.	2a/	ſem-
*	*ij	*	*	*	*ij	*	*
2G\	(et)	2g\	-per	2g\	et	2g/	-per
=45-	=45-	=45-	=45-	=45-	=45-	=45-	=45-
2A\	di-	0r	.	2f\	di-	0r	.
2cny\	-cunt	.	.	2e/	-cunt	.	.
2B\	ſem-	.	.	2d/	ſem-	.	.
!	!	!	!	!LO:SIC:v:t=custos f	!	!	!
2c\	-per	.	.	2c/	-per	.	.
*	*	*	*	*xywh-#466:905,4489,3447,704	*	*	*
!	!	!	!	!LO:LB:g=original	!	!	!
*	*Xij	*	*	*	*Xij	*	*
=46-	=46-	=46-	=46-	=46-	=46-	=46-	=46-
1.F	Glo-	1.c	glo-	2.f\	glo-	2.a/	glo-
.	.	.	.	4g\	.	4b/	.
.	.	.	.	2a\	.	2cc\	.
2F/	-ri-	2fny\	-ri-	2a\	-ri-	2cc\	-ri-
=47-	=47-	=47-	=47-	=47-	=47-	=47-	=47-
1F	-a	0f	-a	1a	-a	1cc	-a
2.B-X\	ti-	.	.	0b-X	ti-	0.dd	ti-
4A\	.	.	.	.	.	.	.
=48-	=48-	=48-	=48-	=48-	=48-	=48-	=48-
1G	.	1g	ti-	.	.	.	.
!LO:SIC:v:t=custos A	!	!	!	!	!	!	!
1G	-bi	2.g\	-bi	1bny	-bi	.	.
*xywh-#162:943,4560,3567,641	*	*	*	*	*	*	*
!LO:LB:g=original	!	!	!	!	!	!	!
.	.	4f\	.	.	.	.	.
=49-	=49-	=49-	=49-	=49-	=49-	=49-	=49-
2.A\	Do-	4e\	.	0.a	do-	2cc\	-bi
.	.	4d\	.	.	.	.	.
.	.	2c/	.	.	.	2.ee\	do-
4G\	.	.	.	.	.	.	.
2.F/	.	1.f	do-	.	.	.	.
.	.	.	.	.	.	4dd\	.
!	!	!	!	!	!	!LO:SIC:v:t=custos cc#	!
.	.	.	.	.	.	1dd\	.
*	*	*	*	*	*	*xywh-#618:1112,3959,3402,603	*
!	!	!	!	!	!	!LO:LB:g=original	!
4D/	.	.	.	.	.	.	.
=50-	=50-	=50-	=50-	=50-	=50-	=50-	=50-
1A	.	.	.	.	.	.	.
.	.	4e\	.	.	.	4cc#X\	.
.	.	4d\	.	.	.	4b\	.
1A	-mi-	2e\	.	1a	-mi-	2cc#X\	.
.	.	2e\	-mi-	.	.	2cc#\	-mi-
=51-	=51-	=51-	=51-	=51-	=51-	=51-	=51-
0D	-ne.	0d	-ne.	0f#X	-ne.	0dd	-ne.
=-	=-	=-	=-	=-	=-	=-	=-
*-	*-	*-	*-	*-	*-	*-	*-
!!!system-decoration: [(s1,s2,s3,s4)]
!!!ENC: Mateusz Solarz
!!!END: 2022-06-30
!!!ENC: Julita Ruszuk
!!!END: 2022-07-04
!!!YEC: Copyright 2022 Narodowy Instytut Fryderyka Chopina (https://polishscores.org)
!!!YEM: License CC-BY-4.0 (https://creativecommons.org/licenses/by/4.0)
!!!IIIF: https://repozytorium.nifc.pl/islandora/object/pl-gd%3A57883/datastream/IIIF/view
!!!ENC-iiif: Lidia Bialucha
!!!END-iiif: 2022-09-04
